X:1
T:Flowers o' the Forest
T:Flowers o' the Forest
T:Scottish folk tune
T:arr.for Four Hands C. Hubert  H Parry
T:by IMSLP
T:by IMSLP
Z:by IMSLP
%%score { ( 1 3 ) | 2 } { ( 4 6 ) | ( 5 7 ) }
L:1/8
Q:1/4=57
M:2/4
K:C
V:1 bass nm="Piano"
V:3 bass 
V:2 bass 
V:4 treble nm="Piano"
V:6 treble 
V:5 treble 
V:7 treble 
V:1
"^Andante" !tenuto![D,G,]2 z2 | [D,G,]2 z2 | (D,3 G,) | (G,2 D,2) | [D,G,]2 z2 |!<(! D,2 G,2-!<)! | %6
!>(! G,2 D,2 | D,4!>)! |[K:treble] [B,G]2 [B,G][B,G] | [DA][GB] [Bd].[ce] | [Bd][GB] [DA][B,G] | %11
 [CE]2 D2 | [B,G]2 [B,G][B,G] | ([DA][GB][Bd][ce]) | ([Bd][GB]) [DA]>[B,G] | [B,G]4 | %16
[K:bass] B,2 A,B, | C2 C2 |!<(! B,2!>(! D2!<)!!>)! | (EC) B,2 |"_rit."!<(! B,2 CG,!<)! | %21
!f! (!>![G,CE]2!>(! [B,D])G,!>)! | A,2 D,2 | D,4 |"_cresc." [B,D]E [A,F][B,F] | [CE]F [CG]2 | %26
[K:treble]!<(! [B,D]2 [DB]A!<)! |!>(! [EG][CE] [B,D]2!>)! |[K:bass]!mf! ([B,D]2!<(! [CE])G,!<)! | %29
!f! (!>![G,CE]2!>(! [B,D])G,!>)! | [D,A,]2 D,2 | [D,G,]4 |!p!!<(! G,3 G,!<)! | %33
!mf! [CE]2!>(! [B,D]B,!>)! |!p! [D,A,]2!>(! D,2!>)! | [D,G,]4 |] %36
V:2
 G,,2 G,,,2 | G,,2 G,,,2 | G,,2 (G,,,G,,) | (C,,2 D,,2) | (G,,2 G,,,2) | (G,,2 G,,,)G,, | %6
 [G,,,G,,]2 D,,2 | (G,,2 G,,,2) | G,,2 G,,,2 | G,,2 G,,,2 | (G,,2 G,,,)G,, | C,,2 D,,2 | %12
 G,,2 G,,,2 | (G,,2 G,,,)G,, | [G,,,G,,]2 D,,2 | G,,2 G,,,2 | G,2 D,2 | A,2 E,F, | G,2 G,,2 | %19
 C,2 [G,,D,]2 | G,,2 [C,,G,,]2 | [G,,,G,,]3 B,,, | D,,2 D,,2 | (G,,2!p! G,,,2) | %24
"^tempo" G,,2 [D,,D,]2 | [A,,E,]2 E,,F,, | G,,2 G,,,2 | C,,2 [G,,,D,,]2 |"^rit." G,,2 [C,,G,,]2 | %29
 [G,,,G,,]3 B,,, | D,,2 D,,2 | G,,2 G,,,2 | G,,2 E,,C,, | [G,,,G,,]3 B,,, | D,,2 D,,2 | %35
 [G,,,G,,]4 |] %36
V:3
 x4 | x4 | x4 | x4 | x4 | x4 | x4 | x4 |[K:treble] x4 | x4 | x4 | x2 A,C | x4 | x4 | x4 | x4 | %16
[K:bass] x4 | x4 | x4 | x4 | x4 | x4 | x4 | x4 | x4 | x4 |[K:treble] x4 | x4 |[K:bass] x4 | x4 | %30
 x4 | x4 | x3 G, | G,3 G, | x4 | x4 |] %36
V:4
 G2 G!<(!G | (AB) de!<)! |!>(! (dB) AG!>)! | (E2 D2) | G2 GG |!<(! (AB) de!<)! | (d!>(!B) (A>G) | %7
 G4!>)! | [Bg]2 [Bg][Bg] | ([da][gb] [bd'])[c'e'] | ([bd'][gb]) [da][Bg] | (e2 d2) | %12
 [Bg]2!<(! [Bg][Bg] | ([da][gb] [bd'])[c'e']!<)! |!>(! [bd'][gb] [da]>[Bg]!>)! | [Bg]4 | DE FF | %17
 EF G2 |!<(! DD!<)!!>(! BA!>)! | (GE) !tenuto!D2 |"^rit."!<(! (D2 E)G!<)! | %21
!f!!>(! (!>![ce]2 [Bd])B!>)! | A2 AB/A/ | G4 |!p! d"_cresc."e ff | [ce]f [cg]2 | %26
!<(! [Bd]2 [db]a!<)! |!>(! [eg][ce] d2!>)! |!mf!!<(! ([Bd]2 [ce][eg])!<)! | %29
!f! ([gc'e']2!>(! [bd'][gb])!>)! | [da]2 ([da]b/a/) | [Bg]4 |!p! (D2!<(! E)G!<)! | %33
!mf! ([ce]2 [Bd])B |!p! A2!>(! AB/G/ | G4!>)! |] %36
V:5
"^espressivo" B,2 B,B, | (DG) Bc | B z DB, | (C2 A,C) | B,2 B,B, | (DG) Bc | (BG) (D>B,) | B,4 | %8
[K:bass] !tenuto!D,2 z2 | !tenuto!D,2 z2 | (D,3 G,) | (G,2 D,2) | !tenuto!D,2 z2 | D,2 z2 | %14
 D,2 D,2 | D,4 | z4 | z4 | z4 | z4 | z2 z[K:treble] E | G3 G | D2 D2 | B,4 |"^tempo" z4 | %25
[K:bass] z2 G,2 | G,2 G,2- | G,2 [D,G,]2 |[K:treble] z2 z G | e2 [Bd][GB] | %30
 !tenuto![DA]2 [DA]B/A/ | [B,G]4 | (B,2 C)E | G3 G | D2 D2 | B,4 |] %36
V:6
 x4 | x4 | x4 | x4 | x4 | x4 | x4 | x4 | x4 | x4 | x4 | c2 Ac | x4 | x4 | x4 | x4 | x4 | x4 | x4 | %19
 x4 | x4 | x4 | x4 | x4 | B2 AB | x4 | x4 | x2 B2 | x4 | x4 | x4 | x4 | x4 | x4 | x4 | x4 |] %36
V:7
 x4 | x4 | x4 | x4 | x4 | x4 | x4 | x4 |[K:bass] x4 | x4 | x4 | x4 | x4 | x4 | x4 | x4 | x4 | x4 | %18
 x4 | x4 | x3[K:treble] x | x4 | x4 | x4 | x4 |[K:bass] x4 | x4 | x4 |[K:treble] x4 | [Gc]3 x | %30
 x4 | x4 | x4 | x4 | x4 | x4 |] %36

